X: 37836
T: Sonny's Shindig
R: reel
M: 4/4
K: Edorian
E2EF GFEB|AFDF BAGF|GFGF EBe2|DAdA eAfg:|
Bee2 fgfe|Acde fdgf|Beeg eebe|afdg2 agf|
feBg Befg|fdAa bagf|gfea gfBf|bafg2 fB2||

